X: 7695
T: Collaboration
R: jig
M: 6/8
K: Bminor
|:B2f fed|edc dcA|B2f fed|faf e2A|
B2f fed|edc dcB|cBc AFE|1 FBA B2A:|2 FBA B2c||
|:dcd B2c|d2f fed|cBc A2B|caf edc|
dcd B2c|d2f fed|cBc AFE|1 FBA B2c:|2 FBA B2A||

